X:1
T:Fireworks Festibal/花火大会
T:Fireworks Festival/花火大会
T:For piano solo and duet
T:By Yojiro Noda Rearranged by Red Swords 
C:Rearranged by Red Swords
%%score { ( 1 4 ) | 2 | 3 }
L:1/8
Q:1/4=144
M:4/4
K:C
V:1 treble nm="Piano" snm="Pno."
V:4 treble 
V:2 treble 
V:3 bass 
V:1
!mp!"^Allegro" degc' b g3 | e2 de gdeg | e2 a2 g2 e2 | d2 de gdeg | d2 e2 c2 d2 | A2 AG AGAc | %6
 A2 c2 d2 e2 | d2 de gdeg | d2 e2 c2 cd || eg e4 GA | cd c4 cd | eg e4 c'b | g6 cd | eg e4 GA | %14
 cd c4!mf!!<(! cd | eg e6- | [eg]4 c'b g2!<)! ||!f!!<(! [cea]4 [gc'e']4 | [fad']4 [bd'g']4 | %19
 [eac'e']8- | [eac'e']8!<)! |!>(! z4 [gc'e']4 | [fbd']4 [dgb]4 | [cec']8- | [cec']8!>)! | %25
!mf! z4 [gc'e']4 | [fad']4 [bd'g']4 | [eac'e']8- | [eac'e']8 | z4 [gc'e']4 | [fbd']4 [dgb]4 | %31
 [ceac']8- | [ceac']8 || z GAc d2 g2 | e4 Pd2 c2 | z GAc d2 g2 | e4 c'2 g2 | z GAc d2 g2 | %38
 e4 Pd2 c2 | c8 | c'bge de g2 | !^![_Bdf_b]8 | !^![G_Bdg]8 | !^![Acea]8 | !^![EAce]8 | %45
 !^![c_egc']8 | !^![dgbd']8 | !^![cegc']8 |!>(! !^![cegc']8!>)! | [GBdgb]8- | [GBdgb]6!p! cd | %51
 eg e4 GA | cd c4 cd | eg e4 c'b | g6!p! cd | eg e4 GA | cd c4 cd | eg e6- | e6 cd | eg e4 GA | %60
 cd c4 cd | eg e4 c'b | g6!p! cd | eg e4 GA | cd c2 cdcd | c8- | c4 c'b g2 | a4 ge d2 | c4 dc d2 | %69
 e8 | g4 c'b g2 | a4 ge d2 | c4 dc d2 | c8- | c4!pp! c'b g2 | a4 ge d2 |"_dim." c4 dc d2 | %77
 !arpeggio![Ace]8- | [Ace]8 |] %79
V:2
 z8 | A4 A4 | c4 c4 | F4 F4 | G4 G4 | A,4 A,4 | C4 C4 |[K:bass] F,4 F,4 | G,4 G,4 || F,,2 C,2 F,4 | %10
 G,,2 D,2 G,4 | A,,2 E,2 A,4 | z8 | F,,2 C,2 F,4 | G,,2 D,2 G,4 | A,,2 E,2 A,2 E,2 | %16
 A,2 E,2 A,2 E,2 ||[K:treble]!ped! a4 g2 e2!ped-up! |!ped! d2 Ac dc d2!ped-up! |!ped! e2 cd e4- | %20
 e2 c'b g4!ped-up! |!ped! a2 GA cA d2!ped-up! |!ped! c2 Ac dc B2!ped-up! |!ped! c2 cd e2 de | %24
 g4 c'b g2!ped-up! |!ped! z2 g2 cdec!ped-up! |!ped! d2 Ac dc G2!ped-up! |!ped! e2 g2 c2 d2 | %28
 e4 G2 A2!ped-up! |!8va(! z!ped! agc' ac'be'!ped-up! |!ped! d'6 g'2!8va)!!ped-up! |!ped! e'8 | %32
 c'gag c'b g2!ped-up! ||!ped! z2 [ae']4 [ae']2-!ped-up! |!ped! [ae']2 [gd']4 [ae']2-!ped-up! | %35
!ped! [ae']2 [ae']4 [ae']2-!ped-up! |!ped! [ae']2 [gd']4 [ae']2-!ped-up! | %37
!ped! [ae']2 [ae']4 [ae']2-!ped-up! |!ped! [ae']2 [gd']4 [ae']2-!ped-up! | %39
!ped! [ae']2 [ae']4 [ae']2-!ped-up! |!ped! [ae']2 [gd']4 z2!ped-up! |!ped! c2 cd e2 g2!ped-up! | %42
!ped! c2 cd e2 c2!ped-up! |!ped! c2 cd e2 g2!ped-up! |!ped! c2 cd e2 g2!ped-up! | c2 cd _e2 g2 | %46
 c2 cd _e2 g2 | c2 cd d2 g2 | c2 gc dgcG | z8 | z8 |[K:bass] F,6 z2 | G,6 z2 | !fermata!A,8 | z8 | %55
 F,6 z2 | G,6 z2 | !fermata!A,8 | z8 | F,6 z2 | G,6 z2 | !fermata!A,8 | z8 | F,6 z2 | G,6 A,2- | %65
 A,8 | z8 |[K:treble] F4 z4 | G4 z4 | A8 | z8 | F4 z4 | G4 z4 | A8- | A4 z4 | F4 z4 | G4 z4 | %77
 A2 cd e2 g2 | d'2 a6 |] %79
V:3
 z8 | z8 | z8 | z8 | z8 | z8 | z8 | z8 | z8 || z8 | z8 | z8 | z8 | z8 | z8 | z8 | z8 || %17
 F,,2 C,2 A,2 C,2 | G,,2 D,2 G,2 D,2 | A,,2 E,2 A,2 E,2 | C2 E,2 A,2 E,2 | F,,2 C,2 F,2 C,2 | %22
 G,,2 D,2 G,2 B,,2 | A,,2 E,2 A,2 E,2 | C,2 E,2 A,2 C,2 | F,,2 C,2 A,2 C,2 | G,,2 D,2 B,2 D,2 | %27
 A,,2 E,2 A,2 E,2 | C2 E,2 A,2 E,2 | F,,2 C,2 F,2 C,2 | G,,2 D,2 G,2 D,2 | A,,2 E,2 A,2 E,2 | %32
 C2 E,2 A,2 E,2 || F,,2 C,2 F,2 A,2 | G,,2 B,,2 D,2 G,2 | A,,2 C,2 F,2 A,2 | G,,2 D,2 G,2 B,2 | %37
 F,,2 C,2 F,2 A,2 | G,,2 B,,2 D,2 G,2 | A,,2 C,2 E,2 A,2 | C2 A,2 E,2 C,2 | _B,,2 D,2 F,D, _B,2 | %42
 G,,2 D,2 _B,D, G,2 | A,,2 E,2 CE, A,2 | E,,2 A,,2 C,A,, E,2 | _A,,2 C,2 _E,C, _A,2 | %46
 F,,2 _A,,2 C,_A,, _E,2 | G,,2 C,2 E,C, G,2 | G,,2 C,2 D,B,, G,2 | z8 | z8 | z8 | z8 | z8 | z8 | %55
 z8 | z8 | z8 | z8 | z8 | z8 | z8 | z8 | z8 | z8 | z8 | z8 | z8 | z8 | z8 | z8 | z8 | z8 | z8 | %74
 z8 | z8 | z8 | z8 | z8 |] %79
V:4
 x8 | x8 | x8 | x8 | x8 | x8 | x8 | x8 | x8 || x8 | x8 | x8 | x8 | x8 | x8 | x8 | x8 || x8 | x8 | %19
 x8 | x8 | x8 | x8 | x8 | x8 | x8 | x8 | x8 | x8 | x8 | x8 | x8 | x8 || x8 | x8 | x8 | x8 | x8 | %38
 x8 | x8 | x8 | x8 | x8 | x8 | x8 | x8 | x8 | x8 | x8 | x8 | x8 | x8 | x8 | x8 | z2!pp! c'b g2 z2 | %55
 x8 | x8 | x8 | x8 | x8 | x8 | x8 | z2!pp! c'b g2 z2 | x8 | x8 | x8 | x8 | x8 | x8 | x8 | x8 | x8 | %72
 x8 | x8 | x8 | x8 | x8 | x8 | x8 |] %79

